src/components/00-materials/images-raw/Merchandise.svg

<svg width="96" height="96" viewBox="0 0 96 96" fill="none" xmlns="http://www.w3.org/2000/svg">
<path d="M67.6 48.98H28.4C24.788 48.98 21.86 51.908 21.86 55.52V73.21C21.86 76.8219 24.788 79.75 28.4 79.75H67.6C71.2119 79.75 74.14 76.8219 74.14 73.21V55.52C74.14 51.908 71.2119 48.98 67.6 48.98Z" stroke="#00008F" stroke-width="2" stroke-linecap="round" stroke-linejoin="round"/>
<path d="M59.6999 56.43V72.31M47.8999 16.25V27.39V16.25ZM47.8999 27.39C49.4446 27.39 50.9546 27.848 52.2389 28.7062C53.5233 29.5644 54.5243 30.7842 55.1154 32.2112C55.7065 33.6383 55.8612 35.2087 55.5599 36.7237C55.2585 38.2386 54.5147 39.6303 53.4224 40.7225C52.3302 41.8148 50.9386 42.5586 49.4236 42.8599C47.9086 43.1613 46.3383 43.0066 44.9112 42.4155C43.4841 41.8244 42.2643 40.8234 41.4062 39.539C40.548 38.2547 40.0899 36.7447 40.0899 35.2L47.8999 27.39ZM50.0099 42.72L56.2699 48.98L50.0099 42.72ZM39.7299 48.98L45.9499 42.76L39.7299 48.98ZM36.2999 56.43V72.31V56.43ZM47.9999 56.43V72.31V56.43Z" stroke="#00008F" stroke-width="2" stroke-linecap="round" stroke-linejoin="round"/>
</svg>

<svg width="96" height="96" viewBox="0 0 96 96" fill="none" xmlns="http://www.w3.org/2000/svg"><path d="M67.6 48.98H28.4a6.54 6.54 0 00-6.54 6.54v17.69a6.54 6.54 0 006.54 6.54h39.2a6.54 6.54 0 006.54-6.54V55.52a6.54 6.54 0 00-6.54-6.54zM59.7 56.43v15.88M47.9 16.25v11.14-11.14zm0 11.14a7.81 7.81 0 11-7.81 7.81l7.81-7.81zm2.11 15.33l6.26 6.26-6.26-6.26zm-10.28 6.26l6.22-6.22-6.22 6.22zm-3.43 7.45v15.88-15.88zm11.7 0v15.88-15.88z" stroke="#00008F" stroke-width="2" stroke-linecap="round" stroke-linejoin="round"/></svg>
